X: 199
T: Sally Sloan's Varsoviana
B: australian dance tunes
M:3/4
L:1/8
R: Varsoviana
Q: 1/4=100
K:G
V:1 
B>c|d2 c2 A2|G4 B>c|d2 g2 f2|e4 f>g|!
a2 g2 (3efe|d4 c>B|c2 A2 F2|G4:|!
g2|f>e B2 e2|d>B GA BG|c>A F2 e2|d4 g2|!
f>e B2 e2|d>B GA BA|c>A F2 A2|G4:|
% abcbook-tune_id 62a07850131f665dbe412dfc


% abcbook-boost 0
% abcbook-tablature 
% abcbook-transpose 
% abcbook-lastupdated 1654683750298
% abcbook-soundfonts 
% abcbook-repeats 1


